packages/synapse-interface/assets/icons/frax.svg

<svg fill="none" height="48" viewBox="0 0 48 48" width="48" xmlns="http://www.w3.org/2000/svg"><circle cx="24" cy="24" fill="#fff" r="24"/><circle cx="24" cy="24" fill="#101018" r="22.5"/><path d="m35.9721 24c0-2.435-.7316-4.7007-1.9847-6.5939l3.717-3.717-3.3427-3.3426-3.7068 3.7067c-1.9033-1.2785-4.1928-2.0252-6.6532-2.0252-2.4351 0-4.7008.7315-6.594 1.9846l-3.7186-3.7169-3.3427 3.3426 3.7068 3.7068c-1.2785 1.9034-2.0253 4.1928-2.0253 6.6532 0 2.4351.7316 4.7008 1.9847 6.594l-3.717 3.7186 3.3427 3.3427 3.7068-3.7068c1.9033 1.2785 4.1928 2.0253 6.6532 2.0253 2.4351 0 4.7008-.7315 6.594-1.9846l3.7186 3.7186 3.3427-3.3427-3.7068-3.7068c1.2785-1.9067 2.0253-4.1961 2.0253-6.6566zm-19.2146 0c0-3.9946 3.2496-7.2442 7.2442-7.2442s7.2442 3.2496 7.2442 7.2442c0 3.9947-3.2496 7.2442-7.2442 7.2442s-7.2442-3.2495-7.2442-7.2442z" fill="#fff"/></svg>

<svg width="48" height="48" viewBox="0 0 48 48" fill="none" xmlns="http://www.w3.org/2000/svg">
<circle cx="24" cy="24" r="24" fill="white"/>
<circle cx="24" cy="24" r="22.5" fill="#101018"/>
<path d="M35.9721 24C35.9721 21.565 35.2405 19.2993 33.9874 17.4061L37.7044 13.6891L34.3617 10.3465L30.6549 14.0532C28.7516 12.7747 26.4621 12.028 24.0017 12.028C21.5666 12.028 19.3009 12.7595 17.4077 14.0126L13.6891 10.2957L10.3464 13.6383L14.0532 17.3451C12.7747 19.2485 12.0279 21.5379 12.0279 23.9983C12.0279 26.4334 12.7595 28.6991 14.0126 30.5923L10.2956 34.3109L13.6383 37.6536L17.3451 33.9468C19.2484 35.2253 21.5379 35.9721 23.9983 35.9721C26.4334 35.9721 28.6991 35.2406 30.5923 33.9875L34.3109 37.7061L37.6536 34.3634L33.9468 30.6566C35.2253 28.7499 35.9721 26.4605 35.9721 24ZM16.7575 24C16.7575 20.0054 20.0071 16.7558 24.0017 16.7558C27.9963 16.7558 31.2459 20.0054 31.2459 24C31.2459 27.9947 27.9963 31.2442 24.0017 31.2442C20.0071 31.2442 16.7575 27.9947 16.7575 24Z" fill="white"/>
</svg>
